; G-Code generated by Simplify3D(R) Version 4.0.1
; Oct 4, 2018 at 5:08:15 PM
; Settings Summary
;   processName,Process1
;   applyToModels,cog-twist-reversed-box-no-hole-base,cog-twist-reversed-box-no-hole-lid,E3DV6_OR_VOLC_WIRE_STRAIN_V7.5,E3DV6_OR_VOLC_40MM_CAP_V7.5
;   profileName,Tevo (modified)
;   profileVersion,2018-05-21 12:02:18
;   baseProfile,Default
;   printMaterial,PLA
;   printQuality,Medium
;   printExtruders,
;   extruderName,Primary Extruder
;   extruderToolheadNumber,0
;   extruderDiameter,0.4
;   extruderAutoWidth,1
;   extruderWidth,0.48
;   extrusionMultiplier,1
;   extruderUseRetract,1
;   extruderRetractionDistance,6
;   extruderExtraRestartDistance,0
;   extruderRetractionZLift,0
;   extruderRetractionSpeed,2800
;   extruderUseCoasting,1
;   extruderCoastingDistance,0.2
;   extruderUseWipe,0
;   extruderWipeDistance,4
;   primaryExtruder,0
;   layerHeight,0.2
;   topSolidLayers,5
;   bottomSolidLayers,5
;   perimeterOutlines,2
;   printPerimetersInsideOut,1
;   startPointOption,1
;   startPointOriginX,0
;   startPointOriginY,0
;   sequentialIslands,0
;   spiralVaseMode,0
;   firstLayerHeightPercentage,80
;   firstLayerWidthPercentage,100
;   firstLayerUnderspeed,0.5
;   useRaft,0
;   raftExtruder,0
;   raftTopLayers,3
;   raftBaseLayers,2
;   raftOffset,3
;   raftSeparationDistance,0.24
;   raftTopInfill,100
;   aboveRaftSpeedMultiplier,0.3
;   useSkirt,1
;   skirtExtruder,0
;   skirtLayers,1
;   skirtOutlines,5
;   skirtOffset,3
;   usePrimePillar,0
;   primePillarExtruder,999
;   primePillarWidth,12
;   primePillarLocation,7
;   primePillarSpeedMultiplier,1
;   useOozeShield,0
;   oozeShieldExtruder,999
;   oozeShieldOffset,2
;   oozeShieldOutlines,1
;   oozeShieldSidewallShape,1
;   oozeShieldSidewallAngle,30
;   oozeShieldSpeedMultiplier,1
;   infillExtruder,0
;   internalInfillPattern,Fast Honeycomb
;   externalInfillPattern,Rectilinear
;   infillPercentage,30
;   outlineOverlapPercentage,20
;   infillExtrusionWidthPercentage,100
;   minInfillLength,5
;   infillLayerInterval,2
;   internalInfillAngles,0
;   overlapInternalInfillAngles,0
;   externalInfillAngles,45,-45
;   generateSupport,1
;   supportExtruder,0
;   supportInfillPercentage,15
;   supportExtraInflation,10
;   supportBaseLayers,0
;   denseSupportExtruder,0
;   denseSupportLayers,0
;   denseSupportInfillPercentage,70
;   supportLayerInterval,1
;   supportHorizontalPartOffset,0.5
;   supportUpperSeparationLayers,1
;   supportLowerSeparationLayers,1
;   supportType,0
;   supportGridSpacing,3.5
;   maxOverhangAngle,60
;   supportAngles,0
;   temperatureName,Primary Extruder,Bed
;   temperatureNumber,0,0
;   temperatureSetpointCount,1,1
;   temperatureSetpointLayers,1,1
;   temperatureSetpointTemperatures,200,70
;   temperatureStabilizeAtStartup,1,1
;   temperatureHeatedBed,0,1
;   temperatureRelayBetweenLayers,0,0
;   temperatureRelayBetweenLoops,0,0
;   fanLayers,1,4,6
;   fanSpeeds,0,60,80
;   blipFanToFullPower,0
;   adjustSpeedForCooling,1
;   minSpeedLayerTime,15
;   minCoolingSpeedSlowdown,20
;   increaseFanForCooling,1
;   minFanLayerTime,45
;   maxCoolingFanSpeed,80
;   increaseFanForBridging,1
;   bridgingFanSpeed,100
;   use5D,1
;   relativeEdistances,0
;   allowEaxisZeroing,1
;   independentExtruderAxes,0
;   includeM10123,0
;   stickySupport,1
;   applyToolheadOffsets,0
;   gcodeXoffset,0
;   gcodeYoffset,0
;   gcodeZoffset,0
;   overrideMachineDefinition,1
;   machineTypeOverride,0
;   strokeXoverride,300
;   strokeYoverride,300
;   strokeZoverride,400
;   originOffsetXoverride,0
;   originOffsetYoverride,-10
;   originOffsetZoverride,0
;   homeXdirOverride,-1
;   homeYdirOverride,-1
;   homeZdirOverride,-1
;   flipXoverride,1
;   flipYoverride,-1
;   flipZoverride,1
;   toolheadOffsets,0,0|0,0|0,0|0,0|0,0|0,0
;   overrideFirmwareConfiguration,0
;   firmwareTypeOverride,RepRap (Marlin/Repetier/Sprinter)
;   GPXconfigOverride,r2
;   baudRateOverride,115200
;   overridePrinterModels,0
;   printerModelsOverride
;   startingGcode,G28 ; home all axesl,G29,M117 Purge extruder,G92 E0 ; reset extruder,G1 Z1.0 F3000 ; move z up little to prevent scratching of surface,G1 X0.1 Y20 Z0.3 F5000.0 ; move to start-line position,G1 X0.1 Y200.0 Z0.3 F1500.0 E15 ; draw 1st line,G1 X0.4 Y200.0 Z0.3 F5000.0 ; move to side a little,G1 X0.4 Y20 Z0.3 F1500.0 E30 ; draw 2nd line,;G1 E27 F3000 ; retract filament 3mm,G92 E0 ; reset extruder,; done purging extruder,G1 Z1.0 F3000 ; move z up little to prevent scratching of surface,M117 You Slave Driver !!!
;   layerChangeGcode,
;   retractionGcode,
;   toolChangeGcode,
;   endingGcode,M104 S0; turn off extruder,M140 S0 ; turn off bed,G1 X0 Y300 F1000 ; prepare for part removal,M84 ; disable motors,M106 S0 ; turn off fan,M300 S294 P200 ;D4: 294,M300 S588 P200 ;D5: 588,M300 S440 P200 ;A4: 440,M300 S392 P200 ;G4: 392,M300 S784 P200 ;G5: 784,M300 S440 P200 ;A4: 440,M300 S740 P200 ;F#5: 740,M300 S440 P200 ;A4: 440,;Play PacMan Tune,M300 S987 P107,M300 S1975 P107,M300 S2959 P107,M300 S2489 P107,M300 S1975 P214,M300 S2489 P214,M300 S2093 P107,M300 S4186 P107,M300 S3135 P107,M300 S2793 P107,M300 S4186 P214,M300 S2637 P214,M300 S987 P107,M300 S1975 P107,M300 S2959 P107,M300 S2489 P107,M300 S1975 P214,M300 S2489 P214,M300 S2489 P53,M300 S2637 P53,M300 S2793 P107,M300 S2793 P53,M300 S2959 P53,M300 S3135 P107,M300 S3135 P53,M300 S3322 P53,M300 S1760 P107,M300 S1975 P214,M117 All Done!,M81 192.168.2.123
;   exportFileFormat,gcode
;   celebration,0
;   celebrationSong,Star Wars
;   postProcessing,,
;   defaultSpeed,3600
;   outlineUnderspeed,0.5
;   solidInfillUnderspeed,0.8
;   supportUnderspeed,0.8
;   rapidXYspeed,4800
;   rapidZspeed,1002
;   minBridgingArea,50
;   bridgingExtraInflation,0
;   bridgingExtrusionMultiplier,1
;   bridgingSpeedMultiplier,1
;   useFixedBridgingAngle,0
;   fixedBridgingAngle,0
;   applyBridgingToPerimeters,0
;   filamentDiameters,1.75|1.75|1.75|1.75|1.75|1.75
;   filamentPricesPerKg,46|46|46|46|46|46
;   filamentDensities,1.25|1.25|1.25|1.25|1.25|1.25
;   useMinPrintHeight,0
;   minPrintHeight,0
;   useMaxPrintHeight,0
;   maxPrintHeight,0
;   useDiaphragm,0
;   diaphragmLayerInterval,20
;   robustSlicing,1
;   mergeAllIntoSolid,0
;   onlyRetractWhenCrossingOutline,1
;   retractBetweenLayers,1
;   useRetractionMinTravel,0
;   retractionMinTravel,3
;   retractWhileWiping,0
;   onlyWipeOutlines,1
;   avoidCrossingOutline,1
;   maxMovementDetourFactor,3
;   toolChangeRetractionDistance,12
;   toolChangeExtraRestartDistance,-0.5
;   toolChangeRetractionSpeed,600
;   externalThinWallType,0
;   internalThinWallType,2
;   thinWallAllowedOverlapPercentage,10
;   singleExtrusionMinLength,1
;   singleExtrusionMinPrintingWidthPercentage,50
;   singleExtrusionMaxPrintingWidthPercentage,200
;   singleExtrusionEndpointExtension,0.2
;   horizontalSizeCompensation,0
G90
M82
M106 S0
M140 S70
M190 S70
M104 S200 T0
M109 S200 T0
G28 ; home all axesl
G29
M117 Purge extruder
G92 E0 ; reset extruder
G1 Z1.0 F3000 ; move z up little to prevent scratching of surface
G1 X0.1 Y20 Z0.3 F5000.0 ; move to start-line position
G1 X0.1 Y200.0 Z0.3 F1500.0 E15 ; draw 1st line
G1 X0.4 Y200.0 Z0.3 F5000.0 ; move to side a little
G1 X0.4 Y20 Z0.3 F1500.0 E30 ; draw 2nd line
;G1 E27 F3000 ; retract filament 3mm
G92 E0 ; reset extruder
; done purging extruder
G1 Z1.0 F3000 ; move z up little to prevent scratching of surface
M117 You Slave Driver !!!
G92 E0
G1 E-6.0000 F2800
G1 Z0.160 F1002
; process Process1
; layer 1, Z = 0.160
T0
; tool H0.200 W0.480
; skirt
G1 X95.814 Y170.335 F4800
G1 E0.0000 F840
G92 E0
G1 X96.608 Y170.006 E0.0343 F1800
G1 X107.120 Y170.006 E0.4539
G1 X107.120 Y169.994 E0.4544
G1 X107.449 Y169.200 E0.4887
G1 X109.156 Y167.493 E0.5850
G1 X109.156 Y165.259 E0.6741
G1 X109.173 Y165.067 E0.6818
G1 X109.302 Y164.351 E0.7109
G1 X109.353 Y164.165 E0.7186
G1 X109.741 Y163.123 E0.7630
G1 X109.863 Y162.888 E0.7735
G1 X110.428 Y162.062 E0.8135
G1 X110.603 Y161.864 E0.8240
G1 X111.271 Y161.271 E0.8597
G1 X111.394 Y161.177 E0.8659
G1 X111.886 Y160.853 E0.8894
G1 X112.022 Y160.777 E0.8956
G1 X113.035 Y160.303 E0.9402
G1 X113.203 Y160.241 E0.9474
G1 X113.858 Y160.059 E0.9745
G1 X114.035 Y160.025 E0.9817
G1 X114.915 Y159.932 E1.0170
G1 X114.971 Y159.928 E1.0193
G1 X115.186 Y159.916 E1.0278
G1 X115.243 Y159.915 E1.0301
G1 X144.270 Y159.915 E2.1886
G1 X144.270 Y159.894 E2.1895
G1 X144.599 Y159.100 E2.2238
G1 X146.964 Y156.735 E2.3573
G1 X147.758 Y156.406 E2.3916
G1 X151.270 Y156.406 E2.5317
G1 X151.270 Y156.394 E2.5322
G1 X151.599 Y155.600 E2.5665
G1 X153.964 Y153.235 E2.7000
G1 X154.758 Y152.906 E2.7343
G1 X189.042 Y152.906 E4.1027
G1 X189.836 Y153.235 E4.1370
G1 X192.201 Y155.600 E4.2705
G1 X192.530 Y156.394 E4.3048
G1 X192.530 Y156.406 E4.3053
G1 X203.042 Y156.406 E4.7248
G1 X203.836 Y156.735 E4.7591
G1 X206.201 Y159.100 E4.8926
G1 X206.530 Y159.894 E4.9269
G1 X206.530 Y187.179 E6.0159
G1 X206.201 Y187.972 E6.0502
G1 X203.836 Y190.337 E6.1837
G1 X203.042 Y190.666 E6.2180
G1 X165.880 Y190.666 E7.7012
G1 X165.880 Y200.778 E8.1048
G1 X165.551 Y201.572 E8.1391
G1 X163.186 Y203.937 E8.2726
G1 X162.392 Y204.266 E8.3069
G1 X96.608 Y204.266 E10.9325
G1 X95.814 Y203.937 E10.9668
G1 X93.449 Y201.572 E11.1003
G1 X93.120 Y200.778 E11.1346
G1 X93.120 Y173.494 E12.2236
G1 X93.449 Y172.700 E12.2579
G1 X95.672 Y170.476 E12.3834
G1 X95.814 Y170.335 F1800
G1 X96.086 Y170.742 F4800
G92 E0
G1 X96.703 Y170.486 E0.0267 F1800
G1 X107.600 Y170.486 E0.4616
G1 X107.600 Y170.089 E0.4774
G1 X107.856 Y169.472 E0.5041
G1 X109.636 Y167.691 E0.6046
G1 X109.636 Y165.281 E0.7008
G1 X109.649 Y165.131 E0.7068
G1 X109.771 Y164.457 E0.7341
G1 X109.810 Y164.312 E0.7401
G1 X110.181 Y163.317 E0.7825
G1 X110.275 Y163.135 E0.7907
G1 X110.808 Y162.358 E0.8283
G1 X110.944 Y162.204 E0.8365
G1 X111.576 Y161.642 E0.8703
G1 X111.673 Y161.568 E0.8751
G1 X112.135 Y161.264 E0.8972
G1 X112.241 Y161.205 E0.9020
G1 X113.220 Y160.746 E0.9452
G1 X113.351 Y160.698 E0.9508
G1 X113.968 Y160.526 E0.9763
G1 X114.105 Y160.500 E0.9819
G1 X114.959 Y160.410 E1.0162
G1 X115.003 Y160.407 E1.0179
G1 X115.205 Y160.396 E1.0260
G1 X115.249 Y160.395 E1.0278
G1 X144.750 Y160.395 E2.2052
G1 X144.750 Y159.989 E2.2214
G1 X145.006 Y159.372 E2.2481
G1 X147.236 Y157.142 E2.3739
G1 X147.853 Y156.886 E2.4006
G1 X151.750 Y156.886 E2.5561
G1 X151.750 Y156.489 E2.5720
G1 X152.006 Y155.872 E2.5986
G1 X154.236 Y153.642 E2.7245
G1 X154.853 Y153.386 E2.7512
G1 X188.947 Y153.386 E4.1119
G1 X189.564 Y153.642 E4.1386
G1 X191.794 Y155.872 E4.2645
G1 X192.050 Y156.489 E4.2912
G1 X192.050 Y156.886 E4.3070
G1 X202.947 Y156.886 E4.7419
G1 X203.564 Y157.142 E4.7686
G1 X205.794 Y159.372 E4.8945
G1 X206.050 Y159.989 E4.9211
G1 X206.050 Y187.083 E6.0025
G1 X205.794 Y187.701 E6.0292
G1 X203.564 Y189.930 E6.1550
G1 X202.947 Y190.186 E6.1817
G1 X165.400 Y190.186 E7.6803
G1 X165.400 Y200.683 E8.0992
G1 X165.144 Y201.300 E8.1259
G1 X162.914 Y203.530 E8.2518
G1 X162.297 Y203.786 E8.2784
G1 X96.703 Y203.786 E10.8964
G1 X96.086 Y203.530 E10.9231
G1 X93.856 Y201.300 E11.0490
G1 X93.600 Y200.683 E11.0756
G1 X93.600 Y173.589 E12.1570
G1 X93.856 Y172.972 E12.1837
G1 X95.944 Y170.883 E12.3016
G1 X96.086 Y170.742 F1800
G1 X96.358 Y171.149 F4800
G92 E0
G1 X96.799 Y170.966 E0.0191 F1800
G1 X108.080 Y170.966 E0.4693
G1 X108.080 Y170.185 E0.5005
G1 X108.263 Y169.744 E0.5196
G1 X110.116 Y167.890 E0.6242
G1 X110.116 Y165.302 E0.7275
G1 X110.126 Y165.195 E0.7317
G1 X110.239 Y164.563 E0.7574
G1 X110.268 Y164.460 E0.7617
G1 X110.620 Y163.512 E0.8020
G1 X110.688 Y163.382 E0.8079
G1 X111.187 Y162.653 E0.8431
G1 X111.284 Y162.543 E0.8490
G1 X111.882 Y162.012 E0.8809
G1 X111.951 Y161.960 E0.8843
G1 X112.385 Y161.674 E0.9051
G1 X112.460 Y161.632 E0.9085
G1 X113.406 Y161.190 E0.9502
G1 X113.499 Y161.155 E0.9542
G1 X114.077 Y160.994 E0.9781
G1 X114.175 Y160.975 E0.9821
G1 X115.003 Y160.888 E1.0153
G1 X115.034 Y160.886 E1.0166
G1 X115.224 Y160.876 E1.0241
G1 X115.255 Y160.875 E1.0254
G1 X145.230 Y160.875 E2.2218
G1 X145.230 Y160.085 E2.2533
G1 X145.413 Y159.644 E2.2723
G1 X147.508 Y157.549 E2.3906
G1 X147.949 Y157.366 E2.4096
G1 X152.230 Y157.366 E2.5805
G1 X152.230 Y156.585 E2.6117
G1 X152.413 Y156.144 E2.6308
G1 X154.508 Y154.049 E2.7490
G1 X154.949 Y153.866 E2.7681
G1 X188.851 Y153.866 E4.1212
G1 X189.292 Y154.049 E4.1402
G1 X191.387 Y156.144 E4.2585
G1 X191.570 Y156.585 E4.2775
G1 X191.570 Y157.366 E4.3087
G1 X202.851 Y157.366 E4.7590
G1 X203.292 Y157.549 E4.7780
G1 X205.387 Y159.644 E4.8963
G1 X205.570 Y160.085 E4.9153
G1 X205.570 Y186.988 E5.9891
G1 X205.387 Y187.429 E6.0081
G1 X203.292 Y189.524 E6.1264
G1 X202.851 Y189.706 E6.1454
G1 X164.920 Y189.706 E7.6594
G1 X164.920 Y200.587 E8.0936
G1 X164.737 Y201.028 E8.1127
G1 X162.642 Y203.123 E8.2309
G1 X162.201 Y203.306 E8.2500
G1 X96.799 Y203.306 E10.8604
G1 X96.358 Y203.123 E10.8794
G1 X94.263 Y201.028 E10.9977
G1 X94.080 Y200.587 E11.0167
G1 X94.080 Y173.685 E12.0905
G1 X94.263 Y173.244 E12.1095
G1 X96.216 Y171.290 E12.2198
G1 X96.358 Y171.149 F1800
G1 X96.630 Y171.555 F4800
G92 E0
G1 X96.894 Y171.446 E0.0114 F1800
G1 X108.560 Y171.446 E0.4770
G1 X108.560 Y170.280 E0.5236
G1 X108.670 Y170.015 E0.5350
G1 X110.596 Y168.089 E0.6437
G1 X110.596 Y165.323 E0.7541
G1 X110.602 Y165.259 E0.7567
G1 X110.708 Y164.669 E0.7806
G1 X110.725 Y164.607 E0.7832
G1 X111.060 Y163.707 E0.8215
G1 X111.100 Y163.629 E0.8250
G1 X111.567 Y162.949 E0.8579
G1 X111.625 Y162.883 E0.8615
G1 X112.188 Y162.383 E0.8915
G1 X112.229 Y162.351 E0.8936
G1 X112.634 Y162.085 E0.9129
G1 X112.679 Y162.060 E0.9150
G1 X113.591 Y161.633 E0.9552
G1 X113.647 Y161.612 E0.9576
G1 X114.187 Y161.462 E0.9799
G1 X114.245 Y161.451 E0.9823
G1 X115.047 Y161.366 E1.0145
G1 X115.066 Y161.365 E1.0152
G1 X115.243 Y161.355 E1.0223
G1 X115.262 Y161.355 E1.0230
G1 X145.710 Y161.355 E2.2383
G1 X145.710 Y160.180 E2.2852
G1 X145.820 Y159.916 E2.2966
G1 X147.780 Y157.956 E2.4072
G1 X148.044 Y157.846 E2.4187
G1 X152.710 Y157.846 E2.6049
G1 X152.710 Y156.680 E2.6514
G1 X152.820 Y156.416 E2.6629
G1 X154.780 Y154.456 E2.7735
G1 X155.044 Y154.346 E2.7849
G1 X188.756 Y154.346 E4.1304
G1 X189.020 Y154.456 E4.1419
G1 X190.980 Y156.416 E4.2525
G1 X191.090 Y156.680 E4.2639
G1 X191.090 Y157.846 E4.3104
G1 X202.756 Y157.846 E4.7761
G1 X203.020 Y157.956 E4.7875
G1 X204.980 Y159.916 E4.8981
G1 X205.090 Y160.180 E4.9095
G1 X205.090 Y186.892 E5.9757
G1 X204.980 Y187.157 E5.9871
G1 X203.021 Y189.117 E6.0977
G1 X202.756 Y189.226 E6.1092
G1 X164.440 Y189.226 E7.6384
G1 X164.440 Y200.492 E8.0881
G1 X164.330 Y200.756 E8.0995
G1 X162.371 Y202.716 E8.2101
G1 X162.106 Y202.826 E8.2215
G1 X96.894 Y202.826 E10.8243
G1 X96.630 Y202.716 E10.8357
G1 X94.670 Y200.756 E10.9463
G1 X94.560 Y200.492 E10.9578
G1 X94.560 Y173.780 E12.0239
G1 X94.670 Y173.515 E12.0353
G1 X96.488 Y171.697 E12.1380
G1 X96.630 Y171.555 F1800
G1 X96.901 Y171.962 F4800
G92 E0
G1 X96.990 Y171.926 E0.0038 F1800
G1 X109.040 Y171.926 E0.4848
G1 X109.040 Y170.376 E0.5466
G1 X109.077 Y170.287 E0.5505
G1 X110.901 Y168.462 E0.6535
G1 X110.990 Y168.426 E0.6573
G1 X111.076 Y168.426 E0.6607
G1 X111.076 Y165.345 E0.7837
G1 X111.078 Y165.323 E0.7845
G1 X111.177 Y164.775 E0.8068
G1 X111.182 Y164.754 E0.8076
G1 X111.500 Y163.902 E0.8439
G1 X111.513 Y163.876 E0.8451
G1 X111.946 Y163.244 E0.8757
G1 X111.965 Y163.222 E0.8769
G1 X112.494 Y162.753 E0.9050
G1 X112.507 Y162.743 E0.9057
G1 X112.883 Y162.496 E0.9237
G1 X112.898 Y162.487 E0.9244
G1 X113.777 Y162.076 E0.9631
G1 X113.795 Y162.069 E0.9639
G1 X114.296 Y161.930 E0.9846
G1 X114.316 Y161.926 E0.9854
G1 X115.091 Y161.844 E1.0165
